common/src/main/resources/icons/plugins/resharper/SolBuilderDuo/SolBuilderDuoRebuildSelection.svg

<svg xmlns="http://www.w3.org/2000/svg" width="16" height="16" data-big="true" viewBox="0 0 24 24"><path fill="#4DB6AC" d="M11 4c2.05 0 4.09.77 5.65 2.33 3.13 3.13 3.12 8.17-.01 11.31-1.83 1.86-4.34 2.6-6.73 2.28l.53-1.96a5.997 5.997 0 0 0 4.8-10.21A5.96 5.96 0 0 0 11 6v4.58L6.04 5.63 11 .68zM5.34 17.65a7.986 7.986 0 0 1-1.23-9.71l1.48 1.47a5.95 5.95 0 0 0 1.16 6.82c.52.52 1.12.93 1.75 1.22L8 19.4c-1-.4-1.88-.97-2.66-1.75" data-tint="true"/></svg>

<!--
  - The MIT License (MIT)
  -
  - Copyright (c) 2015-2024 Elior "Mallowigi" Boukhobza
  -
  - Permission is hereby granted, free of charge, to any person obtaining a copy
  - of this software and associated documentation files (the "Software"), to deal
  - in the Software without restriction, including without limitation the rights
  - to use, copy, modify, merge, publish, distribute, sublicense, and/or sell
  - copies of the Software, and to permit persons to whom the Software is
  - furnished to do so, subject to the following conditions:
  -
  - The above copyright notice and this permission notice shall be included in all
  - copies or substantial portions of the Software.
  -
  - THE SOFTWARE IS PROVIDED "AS IS", WITHOUT WARRANTY OF ANY KIND, EXPRESS OR
  - IMPLIED, INCLUDING BUT NOT LIMITED TO THE WARRANTIES OF MERCHANTABILITY,
  - FITNESS FOR A PARTICULAR PURPOSE AND NONINFRINGEMENT. IN NO EVENT SHALL THE
  - AUTHORS OR COPYRIGHT HOLDERS BE LIABLE FOR ANY CLAIM, DAMAGES OR OTHER
  - LIABILITY, WHETHER IN AN ACTION OF CONTRACT, TORT OR OTHERWISE, ARISING FROM,
  - OUT OF OR IN CONNECTION WITH THE SOFTWARE OR THE USE OR OTHER DEALINGS IN THE
  - SOFTWARE.
  -->


<svg data-big="true" xmlns="http://www.w3.org/2000/svg" version="1.1" width="16px" height="16px" viewBox="0 0 24 24">
  <path fill="#4DB6AC" data-tint="true"
        d="M11,4C13.05,4 15.09,4.77 16.65,6.33C19.78,9.46 19.77,14.5 16.64,17.64C14.81,19.5 12.3,20.24 9.91,19.92L10.44,17.96C12.15,18.12 13.93,17.54 15.24,16.23C17.58,13.89 17.58,10.09 15.24,7.75C14.06,6.57 12.53,6 11,6V10.58L6.04,5.63L11,0.68V4M5.34,17.65C2.7,15 2.3,11 4.11,7.94L5.59,9.41C4.5,11.64 4.91,14.39 6.75,16.23C7.27,16.75 7.87,17.16 8.5,17.45L8,19.4C7,19 6.12,18.43 5.34,17.65Z"/>
</svg>
